app/assets/puntdeur-dubbelkerend-pin-rechts.svg

<svg data-name="Layer 1" xmlns="http://www.w3.org/2000/svg" width="144" height="480" viewBox="0 0 144 480">
    <title>
        puntdeur-dubbelkerend-pin-rechts
    </title>
    <path d="M144 168H0v144h144z" fill="#d9ebf7"/>
    <path d="M120 312h24m0-144h-24M0 312h24m0-144H0" fill="none" stroke="#9fceea" stroke-miterlimit="10" stroke-width="3"/>
    <path d="M120 312H24v12h96z" fill="#d9ebf7"/>
    <path d="M24 312h96v12H30.6z" fill="#d9ebf7"/>
    <path d="M35 318l21.8-70.7a9 9 0 1 0-2.1-12.5A8.7 8.7 0 0 0 53 240h-4l-24 78zm27-81a3 3 0 1 1-3 3" fill="#ffb612" stroke="#000" stroke-miterlimit="10"/>
    <path d="M30 324v-6h-6v-6" fill="none" stroke="#9fceea" stroke-linecap="square" stroke-linejoin="round" stroke-width="3"/>
    <path d="M120 312v12H30" fill="none" stroke="#7d7d7d" stroke-linecap="square" stroke-linejoin="round" stroke-width="3"/>
    <circle cx="30" cy="318" r="6" stroke="#474747" stroke-miterlimit="10" stroke-width="3"/>
    <path d="M24 168h96v-12H30.6z" fill="#d9ebf7"/>
    <path d="M35 162l21.8 70.7a9 9 0 1 1-2.1 12.5A8.7 8.7 0 0 1 53 240h-4l-24-78zm27 81a3 3 0 1 0-3-3" fill="#ffb612" stroke="#000" stroke-miterlimit="10"/>
    <path d="M30 156v6h-6v6" fill="none" stroke="#9fceea" stroke-linecap="square" stroke-linejoin="round" stroke-width="3"/>
    <path d="M120 168v-12H30" fill="none" stroke="#7d7d7d" stroke-linecap="square" stroke-linejoin="round" stroke-width="3"/>
    <circle cx="30" cy="162" r="6" stroke="#474747" stroke-miterlimit="10" stroke-width="3"/>
</svg>

<svg id="80878447-7bfe-439f-94e5-9d4c20261540" data-name="Layer 1" xmlns="http://www.w3.org/2000/svg" width="144" height="480" viewBox="0 0 144 480">
  <title>puntdeur-dubbelkerend-pin-rechts</title>
  <path d="M144,168H0V312H144Z" fill="#d9ebf7"/>
  <path d="M120,312h24m0-144H120M0,312H24m0-144H0" fill="none" stroke="#9fceea" stroke-miterlimit="10" stroke-width="3"/>
  <path d="M120,312H24v12h96Z" fill="#d9ebf7"/>
  <path d="M24,312h96v12H30.6Z" fill="#d9ebf7"/>
  <path d="M35,318l21.8-70.7a9,9,0,1,0-2.1-12.5A8.7,8.7,0,0,0,53,240H49L25,318Zm27-81a3,3,0,1,1-3,3" fill="#ffb612" stroke="#000" stroke-miterlimit="10"/>
  <path d="M30,324v-6H24v-6" fill="none" stroke="#9fceea" stroke-linecap="square" stroke-linejoin="round" stroke-width="3"/>
  <path d="M120,312v12H30" fill="none" stroke="#7d7d7d" stroke-linecap="square" stroke-linejoin="round" stroke-width="3"/>
  <circle cx="30" cy="318" r="6" stroke="#474747" stroke-miterlimit="10" stroke-width="3"/>
  <path d="M24,168h96V156H30.6Z" fill="#d9ebf7"/>
  <path d="M35,162l21.8,70.7a9,9,0,1,1-2.1,12.5A8.7,8.7,0,0,1,53,240H49L25,162Zm27,81a3,3,0,1,0-3-3" fill="#ffb612" stroke="#000" stroke-miterlimit="10"/>
  <path d="M30,156v6H24v6" fill="none" stroke="#9fceea" stroke-linecap="square" stroke-linejoin="round" stroke-width="3"/>
  <path d="M120,168V156H30" fill="none" stroke="#7d7d7d" stroke-linecap="square" stroke-linejoin="round" stroke-width="3"/>
  <circle cx="30" cy="162" r="6" stroke="#474747" stroke-miterlimit="10" stroke-width="3"/>
</svg>
